;FLAVOR:Marlin
;TIME:3740
;Filament used: 2.99002m
;Layer height: 0.2625
;Generated with Cura_SteamEngine 4.0.0
M140 S50
M105
M190 S50
M104 S235
M105
M109 S235
M82 ;absolute extrusion mode
G21;(metric values)
G90;(absolute positioning)
M82;(set extruder to absolute mode)
M107;(start with the fan off)
G28;(Home the printer)
G92 E0;(Reset the extruder to 0)
G0 Z5 E5 F500;(Move up and prime the nozzle)
G0 X1 Z0;(Move outside the printable area)
G1 Y60 E8 F500;(Draw a priming/wiping line to the rear)
G1 X1;(Move a little closer to the print area)
G1 Y10 E16 F500;(draw more priming/wiping)
G1 E15 F250;(Small retract)
G92 E0;(Zero the extruder)
G92 E0
G1 F2400 E-4.5
;LAYER_COUNT:114
;LAYER:-5
M107
G0 F7200 X46.23 Y46.189 Z0.306
;TYPE:SUPPORT-INTERFACE
G1 F2400 E0
G1 F675 X46.982 Y45.437 E0.10824
G1 X47.282 Y45.17 E0.14911
G1 X47.511 Y44.992 E0.17863
G1 X47.755 Y44.825 E0.20872
G1 X47.997 Y44.682 E0.23733
G1 X48.257 Y44.549 E0.26706
G1 X48.521 Y44.434 E0.29636
G1 X48.796 Y44.335 E0.32611
G1 X49.066 Y44.257 E0.35471
G1 X49.339 Y44.196 E0.38318
G1 X49.664 Y44.148 E0.41662
G1 X50.152 Y44.11 E0.46644
G1 X50.32 Y44.103 E0.48355
G1 X53.433 Y44.103 E0.80038
G1 X54.101 Y44.061 E0.8685
G1 X54.778 Y43.931 E0.93866
G1 X55.096 Y43.818 E0.97301
G1 X55.101 Y43.834 E0.97471
G1 X55.915 Y43.518 E1.06358
G1 X56.218 Y43.423 E1.0959
G1 X56.439 Y43.369 E1.11905
G1 X56.795 Y43.309 E1.1558
G1 X57.349 Y43.259 E1.21241
G1 X57.571 Y43.249 E1.23503
G1 X62.632 Y43.253 E1.75012
G1 X63.009 Y43.277 E1.78856
G1 X63.307 Y43.314 E1.81913
G1 X63.591 Y43.369 E1.84857
G1 X63.882 Y43.445 E1.87918
G1 X64.14 Y43.529 E1.90679
G1 X64.942 Y43.848 E1.99464
G1 X64.946 Y43.84 E1.99555
G1 X65.607 Y44.01 E2.06501
G1 X66.592 Y44.103 E2.16571
G1 X69.277 Y44.107 E2.43897
G1 X69.654 Y44.131 E2.47742
G1 X69.952 Y44.168 E2.50798
G1 X70.236 Y44.223 E2.53743
G1 X70.527 Y44.299 E2.56804
G1 X70.793 Y44.386 E2.59652
G1 X71.06 Y44.491 E2.62572
G1 X71.285 Y44.599 E2.65112
G1 X71.673 Y44.764 E2.69403
G1 X71.956 Y44.872 E2.72486
G1 X72.215 Y44.989 E2.75379
G1 X72.469 Y45.124 E2.78306
G1 X72.685 Y45.258 E2.80893
G1 X72.969 Y45.464 E2.84464
G1 X73.408 Y45.836 E2.9032
G1 X73.526 Y45.945 E2.91955
G1 X73.878 Y46.31 E2.97116
G1 X74.136 Y46.605 E3.01105
G1 X74.288 Y46.802 E3.03637
G1 X74.405 Y46.969 E3.05712
G1 X74.558 Y47.203 E3.08558
G1 X74.822 Y47.675 E3.14062
G1 X74.94 Y47.927 E3.16894
G1 X75.044 Y48.191 E3.19782
G1 X75.136 Y48.476 E3.2283
G1 X75.198 Y48.722 E3.25412
G1 X75.258 Y49.076 E3.29066
G1 X75.31 Y49.639 E3.34821
G1 X75.321 Y49.881 E3.37286
G1 X75.317 Y53.069 E3.69732
G1 X75.29 Y53.499 E3.74117
G1 X75.235 Y53.903 E3.78267
G1 X75.155 Y54.25 E3.81891
G1 X74.983 Y54.833 E3.88078
G1 X74.843 Y55.21 E3.92171
G1 X74.661 Y55.594 E3.96496
G1 X74.537 Y55.819 E3.9911
G1 X74.38 Y56.066 E4.02089
G1 X74.198 Y56.312 E4.05203
G1 X73.896 Y56.666 E4.09939
G1 X73.729 Y56.847 E4.12446
G1 X73.307 Y57.368 E4.19269
G1 X72.948 Y57.949 E4.2622
G1 X72.664 Y58.57 E4.3317
G1 X72.461 Y59.221 E4.4011
G1 X72.342 Y59.893 E4.47056
G1 X72.308 Y60.575 E4.54006
G1 X72.36 Y61.256 E4.60957
G1 X72.498 Y61.925 E4.67909
G1 X72.721 Y62.571 E4.74865
G1 X73.021 Y63.183 E4.81801
G1 X73.397 Y63.752 E4.88743
G1 X73.761 Y64.184 E4.94492
G1 X74.111 Y64.576 E4.99841
G1 X74.292 Y64.811 E5.02859
G1 X74.544 Y65.191 E5.075
G1 X74.626 Y65.348 E5.09303
G1 X74.894 Y65.917 E5.15704
G1 X74.959 Y66.075 E5.17443
G1 X75.006 Y66.219 E5.18985
G1 X75.156 Y66.745 E5.24551
G1 X75.205 Y66.952 E5.26716
G1 X75.291 Y67.517 E5.32533
G1 X75.311 Y67.735 E5.34761
G1 X75.322 Y68.035 E5.37816
G1 X75.318 Y70.068 E5.58507
G1 X75.293 Y70.48 E5.62708
G1 X75.266 Y70.711 E5.65075
G1 X75.207 Y71.043 E5.68507
G1 X75.145 Y71.313 E5.71327
G1 X74.998 Y71.829 E5.76787
G1 X74.946 Y71.972 E5.78336
G1 X74.777 Y72.376 E5.82793
G1 X74.682 Y72.574 E5.85028
G1 X74.543 Y72.824 E5.87939
G1 X74.264 Y73.237 E5.93012
G1 X74.089 Y73.461 E5.95905
G1 X73.79 Y73.795 E6.00467
G1 X73.415 Y74.168 E6.0585
G1 X73.112 Y74.436 E6.09967
G1 X72.884 Y74.614 E6.12911
G1 X72.649 Y74.775 E6.15811
G1 X72.392 Y74.928 E6.18855
G1 X72.142 Y75.055 E6.21709
G1 X71.86 Y75.178 E6.2484
G1 X71.609 Y75.268 E6.27554
G1 X71.345 Y75.346 E6.30355
G1 X70.72 Y75.571 E6.37116
G1 X70.514 Y75.669 E6.39438
G1 X70.046 Y75.872 E6.4463
G1 X69.878 Y75.938 E6.46467
G1 X67.657 Y76.718 E6.70425
G1 X67.127 Y76.871 E6.76039
G1 X66.885 Y76.926 E6.78565
G1 X66.62 Y76.971 E6.813
G1 X65.16 Y77.163 E6.96288
G1 X64.645 Y77.204 E7.01546
G1 X64.332 Y77.205 E7.04731
G1 X64.057 Y77.189 E7.07535
G1 X63.774 Y77.155 E7.10436
G1 X63.502 Y77.104 E7.13252
G1 X62.84 Y77.022 E7.20041
G1 X62.351 Y77.016 E7.25019
G1 X62.065 Y77.025 E7.27931
G1 X61.463 Y77.02 E7.34058
G1 X58.084 Y77.125 E7.68465
G1 X57.701 Y77.113 E7.72365
G1 X56.699 Y77.017 E7.82609
G1 X56.539 Y77.025 E7.8424
G1 X56.539 Y77.011 E7.84382
G1 X55.66 Y77.067 E7.93347
G1 X55.356 Y77.069 E7.96441
G1 X54.867 Y77.035 E8.01429
G1 X53.529 Y76.872 E8.15148
G1 X53.181 Y76.816 E8.18735
G1 X52.942 Y76.761 E8.21231
G1 X52.289 Y76.573 E8.28147
G1 X50.932 Y76.085 E8.42824
G1 X49.925 Y75.651 E8.53984
G1 X49.613 Y75.571 E8.57262
G1 X49.622 Y75.553 E8.57467
G1 X48.961 Y75.407 E8.64357
G1 X48.672 Y75.343 E8.67369
G1 X48.383 Y75.258 E8.70435
G1 X48.12 Y75.163 E8.73281
G1 X47.845 Y75.043 E8.76335
G1 X47.603 Y74.918 E8.79107
G1 X47.383 Y74.787 E8.81713
G1 X47.09 Y74.579 E8.8537
G1 X46.619 Y74.188 E8.916
G1 X46.472 Y74.054 E8.93625
G1 X46.25 Y73.83 E8.96834
G1 X45.882 Y73.421 E9.02434
G1 X45.712 Y73.202 E9.05256
G1 X45.462 Y72.832 E9.098
G1 X45.21 Y72.348 E9.15354
G1 X45.137 Y72.187 E9.17153
G1 X45.038 Y71.934 E9.19918
G1 X44.931 Y71.621 E9.23285
G1 X44.826 Y71.26 E9.27111
G1 X44.764 Y70.978 E9.3005
G1 X44.716 Y70.677 E9.33152
G1 X44.692 Y70.434 E9.35637
G1 X44.677 Y70.06 E9.39447
G1 X44.679 Y68.06 E9.59802
G1 X44.71 Y67.497 E9.6554
G1 X44.738 Y67.258 E9.6799
G1 X44.79 Y66.962 E9.71048
G1 X44.851 Y66.701 E9.73776
G1 X45.047 Y66.045 E9.80744
G1 X45.266 Y65.54 E9.86346
G1 X45.371 Y65.334 E9.887
G1 X45.536 Y65.054 E9.92007
G1 X45.857 Y64.614 E9.97551
G1 X45.981 Y64.463 E9.99539
G1 X46.21 Y64.215 E10.02975
G1 X46.64 Y63.701 E10.09795
G1 X47.008 Y63.126 E10.16743
G1 X47.301 Y62.51 E10.23686
G1 X47.514 Y61.861 E10.30638
G1 X47.644 Y61.19 E10.37594
G1 X47.687 Y60.508 E10.44549
G1 X47.644 Y59.828 E10.51483
G1 X47.516 Y59.157 E10.58436
G1 X47.303 Y58.508 E10.65388
G1 X47.012 Y57.89 E10.7234
G1 X46.645 Y57.316 E10.79274
G1 X46.244 Y56.831 E10.85678
G1 X45.88 Y56.423 E10.91243
G1 X45.698 Y56.188 E10.94268
G1 X45.548 Y55.965 E10.97004
G1 X45.383 Y55.68 E11.00355
G1 X45.201 Y55.312 E11.04534
G1 X45.099 Y55.076 E11.0715
G1 X44.923 Y54.564 E11.12661
G1 X44.859 Y54.339 E11.15041
G1 X44.81 Y54.117 E11.17355
G1 X44.759 Y53.838 E11.20242
G1 X44.705 Y53.435 E11.2438
G1 X44.684 Y53.184 E11.26944
G1 X44.677 Y52.967 E11.29153
G1 X44.682 Y49.93 E11.60063
G1 X44.705 Y49.564 E11.63795
G1 X44.745 Y49.245 E11.67067
G1 X44.846 Y48.749 E11.72219
G1 X44.944 Y48.381 E11.76095
G1 X45.055 Y48.039 E11.79754
G1 X45.179 Y47.736 E11.83086
G1 X45.468 Y47.162 E11.89627
G1 X45.732 Y46.772 E11.9442
G1 X45.918 Y46.534 E11.97494
G1 X46.055 Y46.382 E11.99577
G0 F607.5 X46.23 Y46.189
G0 F7200 X46.4 Y46.019
G1 F2400 E12.02233
G1 F675 X46.4 Y57.019 E13.14187
G0 F7200 X44.8 Y54.062
G1 F675 X44.8 Y48.974 E13.6597
G0 F7200 X48 Y44.68
G1 F675 X48 Y75.11 E16.75675
G0 F7200 X49.6 Y75.548
G1 F675 X49.6 Y44.157 E19.9516
G0 F7200 X51.2 Y44.103
G1 F675 X51.2 Y76.181 E23.21637
G0 F7200 X52.8 Y76.72
G1 F675 X52.8 Y44.103 E26.536
G0 F7200 X54.4 Y44.003
G1 F675 X54.4 Y76.978 E29.89206
G0 F7200 X56 Y77.046
G1 F675 X56 Y43.491 E33.30716
G0 F7200 X57.6 Y43.25
G1 F675 X57.6 Y77.103 E36.75258
G0 F7200 X59.2 Y77.091
G1 F675 X59.2 Y43.251 E40.19668
G0 F7200 X60.8 Y43.252
G1 F675 X60.8 Y77.041 E43.63559
G0 F7200 X62.4 Y77.016
G1 F675 X62.4 Y43.253 E47.07185
G0 F7200 X64 Y43.484
G1 F675 X64 Y77.182 E50.5015
G0 F7200 X65.6 Y77.106
G1 F675 X65.6 Y44.009 E53.86998
G0 F7200 X67.2 Y44.104
G1 F675 X67.2 Y76.85 E57.20274
G0 F7200 X68.8 Y76.317
G1 F675 X68.8 Y44.107 E60.48095
G0 F7200 X70.4 Y44.266
G1 F675 X70.4 Y75.719 E63.68211
G0 F7200 X72 Y75.117
G1 F675 X72 Y44.892 E66.75829
G0 F7200 X73.6 Y46.022
G1 F675 X73.6 Y57.007 E67.8763
G0 F7200 X75.2 Y54.055
G1 F675 X75.2 Y48.734 E68.41785
G0 F7200 X73.6 Y63.993
G1 F675 X73.6 Y73.984 E69.43469
G0 F7200 X75.2 Y71.074
G1 F675 X75.2 Y66.931 E69.85635
G0 F7200 X46.4 Y63.987
M104 S230
G1 F675 X46.4 Y73.981 E70.8735
G0 F7200 X44.8 Y71.141
G1 F675 X44.8 Y66.919 E71.3032
G0 F7200 X71.261 Y44.532
;TIME_ELAPSED:92.035552
;LAYER:-4
M140 S50
G0 X71.261 Y44.532 Z0.525
;TYPE:SUPPORT
G1 F675 X71.074 Y44.443 E71.3164
G1 X70.823 Y44.344 E71.33359
G1 X70.538 Y44.25 E71.35272
G1 X70.241 Y44.172 E71.37229
G1 X69.951 Y44.116 E71.39111
G1 X69.661 Y44.081 E71.40973
G1 X69.529 Y44.073 E71.41816
G1 X75.37 Y49.914 E71.94464
G1 X75.369 Y51.186 E72.02571
G1 X68.238 Y44.055 E72.66846
G1 X66.963 Y44.053 E72.74972
G1 X75.367 Y52.457 E73.50721
G1 X75.366 Y53.069 E73.54621
G1 X75.34 Y53.491 E73.57316
G1 X75.313 Y53.676 E73.58508
G1 X65.592 Y43.955 E74.46127
G1 X64.953 Y43.789 E74.50335
G1 X64.914 Y43.783 E74.50587
G1 X64.178 Y43.489 E74.55638
G1 X63.893 Y43.397 E74.57547
G1 X63.715 Y43.35 E74.5872
G1 X75.072 Y54.707 E75.61086
G1 X75.03 Y54.846 E75.62011
G1 X74.929 Y55.133 E75.63951
G1 X74.705 Y55.613 E75.67327
G1 X62.295 Y43.203 E76.79184
G1 X61.021 Y43.202 E76.87303
G1 X74.202 Y56.383 E78.0611
G1 X73.932 Y56.7 E78.08764
G1 X73.766 Y56.88 E78.10324
G1 X73.614 Y57.068 E78.11865
G1 X59.747 Y43.201 E79.36855
G1 X58.473 Y43.199 E79.44974
G1 X73.088 Y57.815 E80.7671
G1 X72.991 Y57.972 E80.77887
G1 X72.708 Y58.588 E80.82207
G1 X72.68 Y58.679 E80.82814
G1 X57.221 Y43.221 E82.22149
G1 X56.782 Y43.26 E82.24958
G1 X56.431 Y43.32 E82.27227
G1 X56.193 Y43.378 E82.28788
G1 X56.127 Y43.399 E82.2923
G1 X72.426 Y59.698 E83.7614
G1 X72.39 Y59.899 E83.77441
G1 X72.356 Y60.575 E83.81755
G1 X72.385 Y60.929 E83.84019
G1 X55.197 Y43.742 E85.38938
G1 X55.13 Y43.767 E85.39394
G1 X55.126 Y43.752 E85.39493
G1 X54.763 Y43.882 E85.4195
G1 X54.177 Y43.995 E85.45754
G1 X72.798 Y62.615 E87.13589
G1 X73.064 Y63.158 E87.17442
G1 X73.436 Y63.722 E87.21749
G1 X73.798 Y64.15 E87.25321
G1 X74.161 Y64.558 E87.28802
G1 X74.323 Y64.77 E87.30502
G1 X74.591 Y65.172 E87.33582
G1 X74.662 Y65.311 E87.34576
G1 X74.938 Y65.895 E87.38693
G1 X75.004 Y66.056 E87.39802
G1 X75.023 Y66.113 E87.40185
G1 X52.962 Y44.052 E89.39031
G1 X51.689 Y44.052 E89.47144
G1 X75.359 Y67.722 E91.60493
G1 X75.361 Y67.751 E91.60678
G1 X75.371 Y68.034 E91.62483
G1 X75.37 Y69.006 E91.68678
G1 X50.416 Y44.052 E93.936
G1 X50.317 Y44.052 E93.94231
G1 X50.145 Y44.059 E93.95328
G1 X49.651 Y44.098 E93.98486
G1 X49.332 Y44.146 E94.00542
G1 X49.254 Y44.163 E94.01051
G1 X75.355 Y70.264 E96.36311
G1 X75.342 Y70.471 E96.37633
G1 X75.313 Y70.725 E96.39262
G1 X75.255 Y71.053 E96.41385
G1 X75.189 Y71.335 E96.43231
G1 X75.181 Y71.363 E96.43417
G1 X48.296 Y44.477 E98.85748
G1 X48.242 Y44.5 E98.86122
G1 X47.97 Y44.638 E98.88066
G1 X47.728 Y44.782 E98.89861
G1 X47.491 Y44.945 E98.91694
G1 X74.857 Y72.311 E101.38356
G1 X74.818 Y72.402 E101.38987
G1 X74.724 Y72.597 E101.40367
G1 X74.587 Y72.846 E101.42178
G1 X74.399 Y73.126 E101.44328
G1 X46.81 Y45.537 E103.93
G1 X46.193 Y46.153 E103.98557
G1 X46.174 Y46.174 E103.98737
G1 X73.827 Y73.827 E106.47986
G1 X73.817 Y73.837 E106.48076
G1 X73.448 Y74.205 E106.51398
G1 X73.174 Y74.447 E106.53728
G1 X45.6 Y46.873 E109.02265
G1 X45.481 Y47.048 E109.03613
G1 X45.425 Y47.134 E109.04268
G1 X45.145 Y47.69 E109.08235
G1 X72.421 Y74.966 E111.54086
G1 X72.156 Y75.103 E111.55987
G1 X71.885 Y75.22 E111.57869
G1 X71.619 Y75.316 E111.59671
G1 X71.525 Y75.343 E111.60294
G1 X44.822 Y48.64 E114.00981
G1 X44.796 Y48.736 E114.01615
G1 X44.694 Y49.247 E114.04936
G1 X44.655 Y49.547 E114.06864
G1 X44.643 Y49.735 E114.08064
G1 X70.594 Y75.685 E116.41968
G1 X70.536 Y75.713 E116.42379
G1 X70.077 Y75.912 E116.45567
G1 X69.894 Y75.984 E116.4682
G1 X69.691 Y76.054 E116.48189
G1 X44.63 Y50.994 E118.74071
G1 X44.627 Y52.264 E118.82165
G1 X68.749 Y76.385 E120.99583
G1 X67.807 Y76.716 E121.05947
G1 X44.675 Y53.584 E123.14446
G1 X44.711 Y53.856 E123.16195
G1 X44.761 Y54.127 E123.17951
G1 X44.81 Y54.352 E123.19419
G1 X44.87 Y54.561 E123.20804
G1 X45.004 Y54.963 E123.23505
G1 X45.079 Y55.161 E123.24855
G1 X45.155 Y55.331 E123.26041
G1 X45.162 Y55.344 E123.26135
G1 X66.806 Y76.989 E125.21227
G1 X66.625 Y77.02 E125.22398
G1 X65.688 Y77.143 E125.28421
G1 X47.347 Y58.802 E126.93736
G1 X47.468 Y59.167 E126.96187
G1 X47.594 Y59.833 E127.00507
G1 X47.627 Y60.355 E127.03841
G1 X64.524 Y77.252 E128.56141
G1 X64.329 Y77.254 E128.57384
G1 X64.049 Y77.237 E128.59172
G1 X63.774 Y77.204 E128.60937
G1 X63.495 Y77.152 E128.62746
G1 X63.102 Y77.103 E128.6527
G1 X47.526 Y61.526 E130.05668
G1 X47.464 Y61.847 E130.07752
G1 X47.255 Y62.49 E130.12061
G1 X47.242 Y62.516 E130.12246
G1 X61.798 Y77.071 E131.43442
G1 X61.463 Y77.069 E131.45577
G1 X60.55 Y77.097 E131.51399
G1 X46.804 Y63.351 E132.75298
G1 X46.6 Y63.671 E132.77716
G1 X46.258 Y64.078 E132.81104
G1 X59.316 Y77.135 E133.98798
G1 X58.082 Y77.174 E134.06666
G1 X45.678 Y64.77 E135.18469
G1 X45.556 Y64.935 E135.19777
G1 X45.466 Y65.067 E135.20795
G1 X45.328 Y65.308 E135.22565
G1 X45.212 Y65.536 E135.24196
G1 X45.199 Y65.564 E135.24393
G1 X56.702 Y77.066 E136.2807
G1 X56.489 Y77.076 E136.29429
G1 X56.489 Y77.063 E136.29512
G1 X55.664 Y77.116 E136.34781
G1 X55.479 Y77.117 E136.3596
G1 X44.858 Y66.496 E137.31692
G1 X44.802 Y66.686 E137.32954
G1 X44.741 Y66.95 E137.34681
G1 X44.689 Y67.251 E137.36628
G1 X44.659 Y67.506 E137.38264
G1 X44.655 Y67.566 E137.38648
G1 X54.075 Y76.986 E138.23554
G1 X53.522 Y76.92 E138.27104
G1 X53.17 Y76.864 E138.29375
G1 X52.943 Y76.812 E138.3086
G1 X52.501 Y76.684 E138.33793
G1 X44.627 Y68.81 E139.04764
G1 X44.626 Y70.058 E139.12719
G1 X44.627 Y70.083 E139.12878
G1 X50.493 Y75.949 E139.65751
G1 X49.909 Y75.698 E139.69802
G1 X49.539 Y75.603 E139.72237
G1 X49.547 Y75.587 E139.72351
G1 X48.661 Y75.39 E139.78136
G1 X44.873 Y71.602 E140.12279
G0 F7200 X44.88 Y71.624
G1 F675 X44.991 Y71.95 E140.14474
G1 X45.084 Y72.189 E140.16108
G1 X45.172 Y72.385 E140.17477
G1 X45.412 Y72.845 E140.20784
G1 X45.672 Y73.233 E140.23761
G1 X45.833 Y73.44 E140.25432
G1 X46.074 Y73.715 E140.27763
G1 X46.45 Y74.101 E140.31197
G1 X46.587 Y74.226 E140.32379
G1 X47.057 Y74.617 E140.36276
G1 X47.355 Y74.829 E140.38607
G1 X47.569 Y74.955 E140.4019
G1 X47.823 Y75.086 E140.42011
G1 X48.105 Y75.21 E140.43975
G1 X48.367 Y75.305 E140.45751
G1 X48.648 Y75.387 E140.47616
G1 X48.661 Y75.39 E140.47701
G0 F7200 X75.179 Y48.45
G1 F675 X71.261 Y44.532 E140.83016
G1 X71.303 Y44.552 E140.83313
G1 X71.69 Y44.718 E140.85997
G1 X71.965 Y44.822 E140.8787
G1 X72.236 Y44.943 E140.89762
G1 X72.489 Y45.078 E140.9159
G1 X72.721 Y45.222 E140.9333
G1 X73 Y45.424 E140.95525
G1 X73.428 Y45.787 E140.99102
G1 X73.573 Y45.922 E141.00365
G1 X73.907 Y46.268 E141.0343
G1 X74.18 Y46.582 E141.06082
G1 X74.328 Y46.772 E141.07617
G1 X74.536 Y47.076 E141.09964
G1 X74.68 Y47.312 E141.11726
G1 X74.859 Y47.64 E141.14108
G1 X74.983 Y47.903 E141.15961
G1 X75.098 Y48.197 E141.17973
G0 F7200 X57.163 Y43.05
;TIME_ELAPSED:190.428264
;LAYER:-3
G0 X57.163 Y43.05 Z0.788
;TYPE:SUPPORT-INTERFACE
G1 F900 X56.775 Y43.085 E141.19464
G1 X56.39 Y43.15 E141.20958
G1 X56.14 Y43.211 E141.21943
G1 X55.842 Y43.305 E141.23139
G1 X55.598 Y43.4 E141.24141
G1 X64.429 Y43.4 E141.57937
G1 X64.822 Y43.557 E141.59557
G1 X65.009 Y43.623 E141.60316
G1 X65.503 Y43.75 E141.62268
G1 X54.526 Y43.75 E142.04277
G1 X54.073 Y43.837 E142.06042
G1 X53.426 Y43.878 E142.08523
G1 X50.311 Y43.878 E142.20444
G1 X50.139 Y43.885 E142.21103
G1 X49.641 Y43.923 E142.23014
G1 X49.298 Y43.975 E142.24342
G1 X49.02 Y44.036 E142.25431
G1 X48.8 Y44.1 E142.26308
G1 X70.647 Y44.1 E143.09916
G1 X70.868 Y44.172 E143.10806
G1 X71.153 Y44.286 E143.11981
G1 X71.377 Y44.393 E143.12931
G1 X71.512 Y44.45 E143.13491
G1 X47.957 Y44.45 E144.03636
G1 X47.886 Y44.486 E144.03941
G1 X47.628 Y44.639 E144.05089
G1 X47.393 Y44.8 E144.06179
G1 X72.343 Y44.8 E145.01663
G1 X72.572 Y44.923 E145.02657
