;FLAVOR:Marlin
;TIME:3972
;Filament used: 3.28564m
;Layer height: 0.2625
;Generated with Cura_SteamEngine 3.6.0
M140 S50
M105
M190 S50
M104 S200
M105
M109 S200
M82 ;absolute extrusion mode
G21;(metric values)
G90;(absolute positioning)
M82;(set extruder to absolute mode)
M107;(start with the fan off)
G28;(Home the printer)
G92 E0;(Reset the extruder to 0)
G0 Z5 E5 F500;(Move up and prime the nozzle)
G0 X1 Z0;(Move outside the printable area)
G1 Y60 E8 F500;(Draw a priming/wiping line to the rear)
G1 X1;(Move a little closer to the print area)
G1 Y10 E16 F500;(draw more priming/wiping)
G1 E15 F250;(Small retract)
G92 E0;(Zero the extruder)
G92 E0
G1 F2400 E-4.5
;LAYER_COUNT:115
;LAYER:-5
M107
G0 F7200 X51.168 Y42.206 Z0.306
;TYPE:SUPPORT-INTERFACE
G1 F2400 E0
G1 F675 X51.59 Y41.723 E0.06528
G1 X51.786 Y41.534 E0.09299
G1 X52.081 Y41.275 E0.13294
G1 X52.296 Y41.108 E0.16065
G1 X52.527 Y40.952 E0.18902
G1 X52.795 Y40.794 E0.22068
G1 X53.052 Y40.664 E0.24999
G1 X53.322 Y40.548 E0.2799
G1 X53.578 Y40.456 E0.30759
G1 X53.87 Y40.372 E0.33851
G1 X54.131 Y40.316 E0.36568
G1 X54.451 Y40.268 E0.39861
G1 X54.919 Y40.232 E0.44639
G1 X55.111 Y40.225 E0.46594
G1 X65.037 Y40.229 E1.47617
G1 X65.414 Y40.253 E1.51462
G1 X65.712 Y40.29 E1.54518
G1 X65.996 Y40.345 E1.57462
G1 X66.287 Y40.421 E1.60523
G1 X66.545 Y40.505 E1.63284
G1 X66.824 Y40.616 E1.6634
G1 X67.082 Y40.738 E1.69245
G1 X67.34 Y40.881 E1.72247
G1 X67.566 Y41.025 E1.74975
G1 X67.825 Y41.217 E1.78256
G1 X68.162 Y41.506 E1.82774
G1 X68.399 Y41.731 E1.861
G1 X68.758 Y42.127 E1.9154
G1 X68.928 Y42.346 E1.94362
G1 X69.093 Y42.585 E1.97318
G1 X69.248 Y42.849 E2.00433
G1 X69.379 Y43.105 E2.0336
G1 X69.487 Y43.351 E2.06095
G1 X69.589 Y43.632 E2.09137
G1 X69.675 Y43.93 E2.12294
G1 X69.728 Y44.164 E2.14736
G1 X69.779 Y44.508 E2.18275
G1 X69.817 Y44.968 E2.22973
G1 X69.825 Y45.362 E2.26983
G1 X69.867 Y46.03 E2.33795
G1 X69.996 Y46.701 E2.4075
G1 X70.209 Y47.35 E2.47702
G1 X70.501 Y47.967 E2.54649
G1 X70.869 Y48.542 E2.61597
G1 X71.308 Y49.066 E2.68554
G1 X71.827 Y49.546 E2.75749
G1 X72.095 Y49.771 E2.79311
G1 X72.553 Y50.21 E2.85767
G1 X72.815 Y50.492 E2.89685
G1 X72.965 Y50.669 E2.92046
G1 X73.086 Y50.83 E2.94096
G1 X73.367 Y51.274 E2.99444
G1 X73.5 Y51.522 E3.02308
G1 X73.7 Y51.966 E3.07264
G1 X73.827 Y52.302 E3.1092
G1 X73.944 Y52.662 E3.14773
G1 X74.017 Y52.936 E3.17659
G1 X74.069 Y53.194 E3.20337
G1 X74.086 Y53.325 E3.21682
G1 X74.136 Y53.931 E3.2787
G1 X74.143 Y54.119 E3.29785
G1 X74.144 Y55.89 E3.47809
G1 X74.113 Y56.476 E3.53782
G1 X74.066 Y56.829 E3.57406
G1 X74.014 Y57.058 E3.59796
G1 X73.832 Y57.676 E3.66353
G1 X73.698 Y58.039 E3.70291
G1 X73.474 Y58.53 E3.75784
G1 X73.342 Y58.775 E3.78616
G1 X73.14 Y59.098 E3.82494
G1 X72.821 Y59.504 E3.87749
G1 X72.581 Y59.767 E3.91372
G1 X72.461 Y59.887 E3.931
G1 X72.019 Y60.391 E3.99922
G1 X71.636 Y60.955 E4.06861
G1 X71.327 Y61.565 E4.1382
G1 X71.098 Y62.207 E4.20757
G1 X70.951 Y62.875 E4.27719
G1 X70.89 Y63.554 E4.34657
G1 X70.915 Y64.237 E4.41613
G1 X71.026 Y64.911 E4.48565
G1 X71.222 Y65.566 E4.55524
G1 X71.497 Y66.19 E4.62464
G1 X71.851 Y66.774 E4.69414
G1 X72.273 Y67.309 E4.76349
G1 X72.695 Y67.728 E4.82402
G1 X73.026 Y68.033 E4.86983
G1 X73.181 Y68.188 E4.89214
G1 X73.437 Y68.461 E4.93023
G1 X73.592 Y68.645 E4.95471
G1 X73.821 Y68.954 E4.99386
G1 X74.065 Y69.367 E5.04268
G1 X74.219 Y69.684 E5.07855
G1 X74.408 Y70.164 E5.13105
G1 X74.476 Y70.359 E5.15207
G1 X74.581 Y70.726 E5.19092
G1 X74.661 Y71.063 E5.22617
G1 X74.712 Y71.387 E5.25955
G1 X74.754 Y71.899 E5.31183
G1 X74.763 Y72.107 E5.33302
G1 X74.763 Y73.879 E5.51337
G1 X74.757 Y74.044 E5.53017
G1 X74.7 Y74.73 E5.60023
G1 X74.561 Y75.354 E5.6653
G1 X74.458 Y75.712 E5.70321
G1 X74.283 Y76.18 E5.75406
G1 X74.151 Y76.463 E5.78585
G1 X73.853 Y76.994 E5.84782
G1 X73.563 Y77.389 E5.89769
G1 X73.384 Y77.601 E5.92593
G1 X73.086 Y77.911 E5.96969
G1 X72.774 Y78.204 E6.01326
G1 X72.384 Y78.534 E6.06525
G1 X72.15 Y78.704 E6.09469
G1 X71.893 Y78.869 E6.12577
G1 X71.665 Y78.995 E6.15228
G1 X71.381 Y79.129 E6.18424
G1 X71.108 Y79.237 E6.21412
G1 X70.851 Y79.321 E6.24164
G1 X70.55 Y79.398 E6.27326
G1 X70.293 Y79.447 E6.29989
G1 X69.966 Y79.486 E6.33341
G1 X69.543 Y79.509 E6.37652
G1 X69.099 Y79.506 E6.42171
G1 X67.695 Y79.526 E6.56462
G1 X66.569 Y79.567 E6.6793
G1 X66.045 Y79.563 E6.73263
G1 X65.586 Y79.591 E6.77943
G1 X65.413 Y79.609 E6.79713
G1 X65.131 Y79.622 E6.82586
G1 X64.816 Y79.615 E6.85793
G1 X64.438 Y79.621 E6.89641
G1 X63.563 Y79.603 E6.98548
G1 X63.563 Y79.61 E6.98619
G1 X63.19 Y79.607 E7.02416
G1 X63.064 Y79.597 E7.03702
G1 X62.436 Y79.585 E7.10095
G1 X62.249 Y79.593 E7.12
G1 X61.961 Y79.586 E7.14932
G1 X61.683 Y79.563 E7.17771
G1 X61.374 Y79.517 E7.2095
G1 X61.131 Y79.465 E7.23479
G1 X60.469 Y79.367 E7.3029
G1 X59.783 Y79.351 E7.37274
G1 X58.955 Y79.453 E7.45765
G1 X58.567 Y79.532 E7.49795
G1 X58.299 Y79.568 E7.52547
G1 X58.059 Y79.591 E7.55001
G1 X58.058 Y79.581 E7.55103
G1 X57.126 Y79.726 E7.64703
G1 X56.633 Y79.765 E7.69736
G1 X56.407 Y79.775 E7.72038
G1 X52.19 Y79.771 E8.14957
G1 X51.813 Y79.747 E8.18802
G1 X51.518 Y79.71 E8.21828
G1 X50.495 Y79.515 E8.32427
G1 X49.773 Y79.447 E8.39808
G1 X49.496 Y79.398 E8.42671
G1 X49.207 Y79.328 E8.45697
G1 X48.94 Y79.246 E8.4854
G1 X48.662 Y79.14 E8.51568
G1 X48.399 Y79.021 E8.54506
G1 X48.145 Y78.886 E8.57433
G1 X47.911 Y78.741 E8.60235
G1 X47.653 Y78.558 E8.63454
G1 X47.211 Y78.19 E8.69308
G1 X46.821 Y77.816 E8.74807
G1 X46.575 Y77.554 E8.78465
G1 X46.378 Y77.317 E8.81602
G1 X46.101 Y76.927 E8.8647
G1 X45.875 Y76.519 E8.91217
G1 X45.738 Y76.223 E8.94537
G1 X45.573 Y75.785 E8.993
G1 X45.523 Y75.636 E9.009
G1 X45.445 Y75.368 E9.03741
G1 X45.332 Y74.888 E9.0876
G1 X45.286 Y74.577 E9.11959
G1 X45.244 Y74.051 E9.1733
G1 X45.237 Y73.853 E9.19346
G1 X45.251 Y71.861 E9.3962
G1 X45.274 Y71.526 E9.43038
G1 X45.323 Y71.183 E9.46564
G1 X45.443 Y70.639 E9.52234
G1 X45.544 Y70.289 E9.55942
G1 X45.725 Y69.802 E9.61229
G1 X45.858 Y69.517 E9.6443
G1 X46.144 Y69.009 E9.70364
G1 X46.432 Y68.615 E9.75331
G1 X46.608 Y68.406 E9.78111
G1 X46.941 Y68.064 E9.8297
G1 X47.313 Y67.719 E9.88133
G1 X47.783 Y67.242 E9.94949
G1 X48.198 Y66.7 E10.01896
G1 X48.541 Y66.111 E10.08833
G1 X48.808 Y65.482 E10.15788
G1 X48.993 Y64.824 E10.22744
G1 X49.092 Y64.148 E10.29698
G1 X49.106 Y63.466 E10.3664
G1 X49.035 Y62.787 E10.43589
G1 X48.877 Y62.122 E10.50545
G1 X48.638 Y61.483 E10.57489
G1 X48.319 Y60.879 E10.64441
G1 X47.928 Y60.321 E10.71375
G1 X47.538 Y59.884 E10.77336
G1 X47.198 Y59.527 E10.82354
G1 X47.031 Y59.328 E10.84998
G1 X46.863 Y59.103 E10.87856
G1 X46.592 Y58.66 E10.93141
G1 X46.478 Y58.442 E10.95645
G1 X46.338 Y58.135 E10.99079
G1 X46.226 Y57.853 E11.02167
G1 X46.161 Y57.659 E11.0425
G1 X45.983 Y57.045 E11.10756
G1 X45.949 Y56.905 E11.12222
G1 X45.883 Y56.417 E11.17234
G1 X45.858 Y56.027 E11.21212
G1 X45.856 Y54.142 E11.40396
G1 X45.866 Y53.92 E11.42658
G1 X45.921 Y53.298 E11.49013
G1 X45.96 Y53.054 E11.51528
G1 X46.059 Y52.648 E11.55781
G1 X46.121 Y52.44 E11.5799
G1 X46.212 Y52.187 E11.60727
G1 X46.375 Y51.791 E11.65085
G1 X46.535 Y51.448 E11.68937
G1 X46.653 Y51.227 E11.71487
G1 X46.788 Y51.004 E11.7414
G1 X47.108 Y50.579 E11.79554
G1 X47.279 Y50.379 E11.82233
G1 X47.55 Y50.101 E11.86184
G1 X47.943 Y49.737 E11.91636
G1 X48.229 Y49.501 E11.9541
G1 X48.717 Y49.042 E12.02228
G1 X49.151 Y48.515 E12.09176
G1 X49.515 Y47.937 E12.16128
G1 X49.803 Y47.318 E12.23077
G1 X50.012 Y46.668 E12.30026
G1 X50.136 Y45.998 E12.3696
G1 X50.174 Y45.363 E12.43435
G1 X50.178 Y44.995 E12.4718
G1 X50.202 Y44.618 E12.51025
G1 X50.239 Y44.32 E12.54081
G1 X50.294 Y44.036 E12.57025
G1 X50.37 Y43.745 E12.60087
G1 X50.454 Y43.487 E12.62848
G1 X50.565 Y43.208 E12.65904
G1 X50.687 Y42.95 E12.68809
G1 X50.833 Y42.687 E12.7187
G1 X50.97 Y42.472 E12.74465
G1 X51.012 Y42.415 E12.75185
G0 F607.5 X51.168 Y42.206
G0 F7200 X51.2 Y42.169
G1 F2400 E12.77842
G1 F675 X51.2 Y79.649 E16.59298
G0 F7200 X52.8 Y79.771
G1 F675 X52.8 Y40.791 E20.56021
G0 F7200 X54.4 Y40.275
G1 F675 X54.4 Y79.773 E24.58016
G0 F7200 X56 Y79.774
G1 F675 X56 Y40.226 E28.6052
G0 F7200 X57.6 Y40.227
G1 F675 X57.6 Y79.653 E32.61782
G0 F7200 X59.2 Y79.423
G1 F675 X59.2 Y40.227 E36.60703
G0 F7200 X60.8 Y40.228
G1 F675 X60.8 Y79.416 E40.59543
G0 F7200 X62.4 Y79.587
G1 F675 X62.4 Y40.228 E44.60123
G0 F7200 X64 Y40.229
G1 F675 X64 Y79.611 E48.60938
G0 F7200 X65.6 Y79.591
G1 F675 X65.6 Y40.277 E52.6106
G0 F7200 X67.2 Y40.804
G1 F675 X67.2 Y79.545 E56.5535
G0 F7200 X68.8 Y79.511
G1 F675 X68.8 Y42.182 E60.3527
G0 F7200 X70.4 Y47.754
G1 F675 X70.4 Y79.427 E63.57625
G0 F7200 X72 Y78.801
G1 F675 X72 Y66.963 E64.78107
G0 F7200 X73.6 Y68.656
G1 F675 X73.6 Y77.339 E65.6648
G0 F7200 X72 Y60.419
G1 F675 X72 Y49.692 E66.75655
G0 F7200 X73.6 Y51.744
G1 F675 X73.6 Y58.254 E67.41911
G0 F7200 X48 Y60.423
G1 F675 X48 Y49.689 E68.51157
G0 F7200 X49.6 Y47.754
G1 F675 X49.6 Y79.416 E71.73401
G0 F7200 X48 Y78.796
G1 F675 X48 Y66.958 E72.93883
G0 F7200 X46.4 Y68.658
G1 F675 X46.4 Y77.343 E73.82275
G0 F7200 X46.4 Y58.27
G1 F675 X46.4 Y51.737 E74.48766
G0 F7200 X68.234 Y41.505
;TIME_ELAPSED:94.685634
;LAYER:-4
M140 S50
G0 X68.234 Y41.505 Z0.525
;TYPE:SUPPORT
G1 F675 X68.205 Y41.478 E74.49018
G1 X67.841 Y41.166 E74.52074
G1 X67.603 Y40.99 E74.5396
G1 X67.361 Y40.836 E74.55789
G1 X67.111 Y40.698 E74.57609
G1 X66.83 Y40.563 E74.59595
G1 X66.583 Y40.465 E74.61289
G1 X66.298 Y40.372 E74.632
G1 X66.001 Y40.295 E74.65155
G1 X65.711 Y40.238 E74.67039
G1 X65.692 Y40.236 E74.67161
G1 X69.807 Y44.351 E75.04251
G1 X69.827 Y44.489 E75.0514
G1 X69.866 Y44.966 E75.0819
G1 X69.874 Y45.36 E75.10702
G1 X69.896 Y45.713 E75.12956
G1 X64.362 Y40.179 E75.62836
G1 X63.088 Y40.178 E75.70956
G1 X70.265 Y47.355 E76.35646
G1 X70.544 Y47.942 E76.39788
G1 X70.908 Y48.511 E76.44093
G1 X71.342 Y49.032 E76.48415
G1 X71.858 Y49.508 E76.52889
G1 X72.122 Y49.73 E76.55088
G1 X72.587 Y50.173 E76.59181
G1 X72.84 Y50.446 E76.61553
G1 X72.998 Y50.633 E76.63114
G1 X73.126 Y50.802 E76.64465
G1 X73.403 Y51.238 E76.67757
G1 X73.543 Y51.5 E76.6965
G1 X73.741 Y51.936 E76.72702
G1 X73.844 Y52.207 E76.7455
G1 X61.815 Y40.178 E77.82973
G1 X60.542 Y40.177 E77.91086
G1 X74.175 Y53.81 E79.13967
G1 X74.184 Y53.928 E79.14721
G1 X74.192 Y54.103 E79.15837
G1 X74.193 Y55.101 E79.22198
G1 X59.268 Y40.177 E80.56719
G1 X57.995 Y40.176 E80.64833
G1 X74.169 Y56.35 E82.10616
G1 X74.163 Y56.466 E82.11357
G1 X74.115 Y56.837 E82.13741
G1 X74.06 Y57.072 E82.15279
G1 X73.961 Y57.414 E82.17548
G1 X56.721 Y40.175 E83.72936
G1 X55.449 Y40.175 E83.81043
G1 X73.615 Y58.341 E85.44781
G1 X73.522 Y58.544 E85.46204
G1 X73.392 Y58.786 E85.47955
G1 X73.183 Y59.121 E85.50472
G1 X73.157 Y59.156 E85.5075
G1 X54.247 Y40.247 E87.2119
G1 X54.125 Y40.264 E87.21975
G1 X53.845 Y40.325 E87.23801
G1 X53.576 Y40.402 E87.25584
G1 X53.302 Y40.502 E87.27443
G1 X53.252 Y40.524 E87.27792
G1 X72.573 Y59.845 E89.0194
G1 X72.496 Y59.922 E89.02635
G1 X72.058 Y60.42 E89.06861
G1 X71.984 Y60.529 E89.07701
G1 X52.419 Y40.964 E90.84049
G1 X52.261 Y41.07 E90.85262
G1 X52.04 Y41.242 E90.87047
G1 X51.715 Y41.533 E90.89827
G1 X71.505 Y61.323 E92.68203
G1 X71.372 Y61.584 E92.7007
G1 X71.144 Y62.221 E92.74383
G1 X71.142 Y62.233 E92.7446
G1 X51.108 Y42.199 E94.55036
G1 X50.927 Y42.442 E94.56967
G1 X50.787 Y42.663 E94.58634
G1 X50.645 Y42.919 E94.605
G1 X50.616 Y42.98 E94.6093
G1 X70.96 Y63.324 E96.443
G1 X70.939 Y63.556 E96.45785
G1 X70.963 Y64.232 E96.50096
G1 X71.036 Y64.672 E96.52939
G1 X50.273 Y43.909 E98.40085
G1 X50.242 Y44.03 E98.40881
G1 X50.186 Y44.322 E98.42776
G1 X50.15 Y44.609 E98.4462
G1 X50.126 Y44.993 E98.47072
G1 X50.126 Y45.034 E98.47333
G1 X72.092 Y67.001 E100.45327
G1 X72.309 Y67.276 E100.4756
G1 X72.728 Y67.69 E100.51314
G1 X73.069 Y68.005 E100.54273
G1 X73.46 Y68.411 E100.57865
G1 X73.631 Y68.614 E100.59557
G1 X73.819 Y68.865 E100.61556
G1 X73.932 Y69.039 E100.62878
G1 X74.111 Y69.348 E100.65154
G1 X74.261 Y69.659 E100.67355
G1 X74.459 Y70.159 E100.70782
G1 X74.518 Y70.326 E100.71911
G1 X74.627 Y70.704 E100.74418
G1 X74.659 Y70.84 E100.75309
G1 X50.041 Y46.223 E102.97197
G1 X49.962 Y46.655 E102.99996
G1 X49.777 Y47.231 E103.03852
G1 X74.811 Y72.266 E105.29499
G1 X74.811 Y73.539 E105.37613
G1 X49.359 Y48.086 E107.67028
G1 X49.109 Y48.485 E107.70029
G1 X48.827 Y48.827 E107.72854
G1 X74.746 Y74.746 E110.06474
G1 X74.609 Y75.366 E110.1052
G1 X74.505 Y75.726 E110.12909
G1 X74.491 Y75.764 E110.13167
G1 X48.193 Y49.466 E112.50203
G1 X47.803 Y49.793 E112.53446
G1 X47.517 Y50.063 E112.55953
G1 X74.104 Y76.649 E114.95589
G1 X73.901 Y77.008 E114.98218
G1 X73.818 Y77.129 E114.99153
G1 X73.602 Y77.42 E115.01463
G1 X46.922 Y50.741 E117.41937
G1 X46.745 Y50.979 E117.43828
G1 X46.6 Y51.219 E117.45615
G1 X46.491 Y51.424 E117.47094
G1 X46.441 Y51.532 E117.47853
G1 X72.981 Y78.073 E119.87075
G1 X72.709 Y78.326 E119.89442
G1 X72.412 Y78.574 E119.91908
G1 X72.295 Y78.659 E119.9283
G1 X46.073 Y52.437 E122.29181
G1 X46.01 Y52.635 E122.30505
G1 X45.911 Y53.041 E122.33168
G1 X45.872 Y53.291 E122.34781
G1 X45.854 Y53.491 E122.36061
G1 X71.494 Y79.13 E124.67161
G1 X71.405 Y79.173 E124.67791
G1 X71.136 Y79.279 E124.69634
G1 X70.851 Y79.372 E124.71545
G1 X70.571 Y79.444 E124.73387
G1 X70.54 Y79.449 E124.73588
G1 X45.805 Y54.715 E126.96531
G1 X45.807 Y55.968 E127.04517
G1 X45.807 Y55.989 E127.04651
G1 X69.374 Y79.556 E129.17071
G1 X69.099 Y79.555 E129.18823
G1 X68.114 Y79.569 E129.25102
G1 X46.07 Y57.525 E131.23794
G1 X46.113 Y57.673 E131.24777
G1 X46.183 Y57.883 E131.26187
G1 X46.265 Y58.093 E131.27624
G1 X46.422 Y58.443 E131.30069
G1 X46.55 Y58.685 E131.31814
G1 X46.823 Y59.134 E131.35163
G1 X46.992 Y59.358 E131.36952
G1 X47.156 Y59.554 E131.3858
G1 X47.501 Y59.918 E131.41777
G1 X47.888 Y60.35 E131.45473
G1 X48.275 Y60.904 E131.4978
G1 X48.386 Y61.114 E131.51294
G1 X66.876 Y79.604 E133.17953
G1 X66.571 Y79.615 E133.19898
G1 X66.045 Y79.612 E133.23251
G1 X65.636 Y79.637 E133.25862
G1 X49.008 Y63.008 E134.75743
G1 X49.056 Y63.467 E134.78684
G1 X49.042 Y64.143 E134.82993
G1 X49.019 Y64.292 E134.83954
G1 X64.395 Y79.669 E136.2255
G1 X63.613 Y79.653 E136.27535
G1 X63.186 Y79.656 E136.30256
G1 X63.102 Y79.649 E136.30793
G1 X48.794 Y65.34 E137.59762
G1 X48.76 Y65.463 E137.60576
G1 X48.496 Y66.086 E137.64888
G1 X48.412 Y66.231 E137.65956
G1 X61.802 Y79.621 E138.86646
G1 X61.67 Y79.611 E138.8749
G1 X61.374 Y79.568 E138.89396
G1 X61.121 Y79.513 E138.91047
G1 X60.464 Y79.416 E138.95279
G1 X60.321 Y79.413 E138.96191
G1 X47.905 Y66.997 E140.08102
G1 X47.745 Y67.208 E140.0979
G1 X47.296 Y67.661 E140.13855
G1 X59.117 Y79.482 E141.20403
G1 X58.962 Y79.501 E141.21398
G1 X58.583 Y79.578 E141.23863
G1 X58.293 Y79.618 E141.25729
G1 X58.131 Y79.63 E141.26764
G1 X58.015 Y79.647 E141.27511
G1 X58.015 Y79.637 E141.27575
G1 X58.001 Y79.638 E141.27665
G1 X46.651 Y68.288 E142.29967
G1 X46.56 Y68.382 E142.30801
G1 X46.401 Y68.573 E142.32385
G1 X46.089 Y69 E142.35756
G1 X56.884 Y79.794 E143.33051
G1 X56.639 Y79.814 E143.34618
G1 X56.408 Y79.823 E143.36091
G1 X55.64 Y79.823 E143.40986
G1 X45.657 Y69.84 E144.30968
G1 X45.497 Y70.271 E144.33898
G1 X45.389 Y70.643 E144.36367
G1 X45.353 Y70.808 E144.37443
G1 X54.365 Y79.821 E145.18677
G1 X53.092 Y79.821 E145.2679
G1 X45.199 Y71.928 E145.97933
G1 X45.191 Y73.192 E146.05989
G1 X51.793 Y79.794 E146.65496
G1 X51.515 Y79.76 E146.67281
G1 X50.488 Y79.564 E146.73945
G1 X50.268 Y79.543 E146.75354
G1 X45.228 Y74.502 E147.20786
G1 X45.235 Y74.586 E147.21323
G1 X45.283 Y74.896 E147.23322
G1 X45.396 Y75.381 E147.26496
G1 X45.53 Y75.814 E147.29385
G1 X45.691 Y76.238 E147.32276
G1 X48.634 Y79.181 E147.58802
G1 X48.376 Y79.065 E147.60605
G1 X48.124 Y78.93 E147.62427
G1 X47.871 Y78.773 E147.64325
G1 X47.627 Y78.599 E147.66235
G1 X47.178 Y78.227 E147.69951
G1 X46.786 Y77.851 E147.73413
G1 X46.534 Y77.582 E147.75763
G1 X46.343 Y77.351 E147.77673
G1 X46.057 Y76.952 E147.80802
G1 X45.827 Y76.534 E147.83843
G0 F7200 X68.531 Y41.802
G1 F675 X68.234 Y41.505 E147.8652
G1 X68.434 Y41.695 E147.88278
G0 F7200 X53.489 Y40.25
;TIME_ELAPSED:197.973645
;LAYER:-3
G0 X53.489 Y40.25 Z0.788
;TYPE:SUPPORT-INTERFACE
G1 F900 X53.228 Y40.344 E147.89339
