;FLAVOR:Marlin
;TIME:4439
;Filament used: 3.15959m
;Layer height: 0.2625
;Generated with Cura_SteamEngine 3.6.0
M140 S50
M105
M190 S50
M104 S200
M105
M109 S200
M82 ;absolute extrusion mode
G21;(metric values)
G90;(absolute positioning)
M82;(set extruder to absolute mode)
M107;(start with the fan off)
G28;(Home the printer)
G92 E0;(Reset the extruder to 0)
G0 Z5 E5 F500;(Move up and prime the nozzle)
G0 X1 Z0;(Move outside the printable area)
G1 Y60 E8 F500;(Draw a priming/wiping line to the rear)
G1 X1;(Move a little closer to the print area)
G1 Y10 E16 F500;(draw more priming/wiping)
G1 E15 F250;(Small retract)
G92 E0;(Zero the extruder)
G92 E0
G1 F2400 E-4.5
;LAYER_COUNT:115
;LAYER:-5
M107
G0 F7200 X47.038 Y46.063 Z0.306
;TYPE:SUPPORT-INTERFACE
G1 F2400 E0
G1 F675 X47.418 Y45.716 E0.05237
G1 X48.537 Y44.806 E0.19917
G1 X48.954 Y44.499 E0.25187
G1 X50.182 Y43.696 E0.4012
G1 X50.643 Y43.425 E0.45562
G1 X51.946 Y42.756 E0.6047
G1 X52.407 Y42.545 E0.65629
G1 X52.562 Y42.48 E0.6734
G1 X53.934 Y41.958 E0.8228
G1 X54.293 Y41.841 E0.86123
G1 X55.699 Y41.46 E1.00949
G1 X56.221 Y41.343 E1.06393
G1 X57.706 Y41.105 E1.217
G1 X58.328 Y41.041 E1.28064
G1 X59.686 Y40.969 E1.41905
G1 X60.188 Y40.966 E1.47014
G1 X61.653 Y41.04 E1.61943
G1 X62.183 Y41.09 E1.67361
G1 X63.646 Y41.319 E1.82432
G1 X64.267 Y41.452 E1.88896
G1 X65.574 Y41.801 E2.02664
G1 X66.192 Y42.002 E2.09278
G1 X67.445 Y42.482 E2.22934
G1 X68.045 Y42.752 E2.29631
G1 X69.338 Y43.413 E2.4441
G1 X69.792 Y43.68 E2.49771
G1 X70.923 Y44.415 E2.63499
G1 X71.34 Y44.713 E2.68715
G1 X72.474 Y45.625 E2.83526
G1 X72.851 Y45.959 E2.88652
G1 X73.937 Y47.038 E3.04233
G1 X74.284 Y47.418 E3.0947
G1 X75.194 Y48.537 E3.2415
G1 X75.501 Y48.954 E3.2942
G1 X76.297 Y50.171 E3.4422
G1 X76.575 Y50.643 E3.49795
G1 X77.244 Y51.946 E3.64702
G1 X77.455 Y52.407 E3.69862
G1 X77.52 Y52.562 E3.71573
G1 X78.042 Y53.934 E3.86513
G1 X78.159 Y54.293 E3.90356
G1 X78.54 Y55.699 E4.05182
G1 X78.655 Y56.21 E4.10513
G1 X78.895 Y57.706 E4.25933
G1 X78.959 Y58.328 E4.32297
G1 X79.031 Y59.686 E4.46137
G1 X79.034 Y60.188 E4.51247
G1 X78.96 Y61.653 E4.66176
G1 X78.91 Y62.18 E4.71564
G1 X78.682 Y63.643 E4.86633
G1 X78.548 Y64.267 E4.93129
G1 X78.199 Y65.574 E5.06897
G1 X77.998 Y66.192 E5.13511
G1 X77.518 Y67.445 E5.27167
G1 X77.248 Y68.044 E5.33854
G1 X76.646 Y69.227 E5.47364
G1 X76.319 Y69.792 E5.54008
G1 X75.51 Y71.033 E5.69085
G1 X75.213 Y71.437 E5.74188
G1 X74.268 Y72.599 E5.89432
G1 X73.933 Y72.965 E5.94481
G1 X72.886 Y74.01 E6.09537
G1 X72.525 Y74.333 E6.14467
G1 X71.337 Y75.29 E6.29993
G1 X70.926 Y75.584 E6.35136
G1 X69.659 Y76.401 E6.5048
G1 X69.241 Y76.639 E6.55375
G1 X67.904 Y77.316 E6.70628
G1 X67.438 Y77.519 E6.75801
G1 X66.198 Y77.995 E6.89319
G1 X65.592 Y78.193 E6.95807
G1 X64.131 Y78.581 E7.11192
G1 X63.656 Y78.68 E7.16131
G1 X62.188 Y78.909 E7.31252
G1 X61.672 Y78.959 E7.36528
G1 X60.314 Y79.031 E7.50369
G1 X59.812 Y79.034 E7.55478
G1 X58.347 Y78.96 E7.70407
G1 X57.817 Y78.91 E7.75825
G1 X56.354 Y78.681 E7.90896
G1 X55.733 Y78.548 E7.9736
G1 X54.426 Y78.199 E8.11128
G1 X53.808 Y77.998 E8.17742
G1 X52.555 Y77.518 E8.31399
G1 X51.955 Y77.248 E8.38095
G1 X50.66 Y76.586 E8.52897
G1 X50.208 Y76.32 E8.58235
G1 X49.077 Y75.585 E8.71963
G1 X48.652 Y75.281 E8.77281
G1 X47.525 Y74.374 E8.92004
G1 X47.149 Y74.041 E8.97116
G1 X46.063 Y72.962 E9.12697
G1 X45.71 Y72.575 E9.18028
G1 X44.798 Y71.453 E9.32744
G1 X44.494 Y71.039 E9.37972
G1 X43.69 Y69.809 E9.52927
G1 X43.425 Y69.357 E9.5826
G1 X42.754 Y68.05 E9.73212
G1 X42.48 Y67.438 E9.80037
G1 X41.954 Y66.055 E9.95096
G1 X41.842 Y65.707 E9.98817
G1 X41.419 Y64.131 E10.15425
G1 X41.318 Y63.645 E10.20477
G1 X41.091 Y62.188 E10.35484
G1 X41.041 Y61.672 E10.4076
G1 X40.969 Y60.314 E10.54601
G1 X40.966 Y59.812 E10.5971
G1 X41.04 Y58.347 E10.74639
G1 X41.09 Y57.82 E10.80027
G1 X41.318 Y56.357 E10.95097
G1 X41.452 Y55.733 E11.01592
G1 X41.834 Y54.314 E11.16548
G1 X42.002 Y53.808 E11.21975
G1 X42.482 Y52.555 E11.35631
G1 X42.752 Y51.955 E11.42327
G1 X43.413 Y50.662 E11.57107
G1 X43.68 Y50.208 E11.62467
G1 X44.415 Y49.077 E11.76195
G1 X44.713 Y48.66 E11.81412
G1 X45.626 Y47.525 E11.96237
G1 X45.959 Y47.149 E12.01349
G1 X46.854 Y46.248 E12.14274
G0 F607.5 X47.038 Y46.063
G0 F7200 X46.4 Y46.705
G1 F2400 E12.1693
G1 F675 X46.4 Y73.296 E14.87563
G0 F7200 X48 Y74.756
G1 F675 X48 Y45.242 E17.87945
G0 F7200 X49.6 Y44.076
G1 F675 X49.6 Y75.924 E21.12081
G0 F7200 X51.2 Y76.862
G1 F675 X51.2 Y43.139 E24.553
G0 F7200 X52.8 Y42.389
G1 F675 X52.8 Y77.611 E28.13776
G0 F7200 X54.4 Y78.19
G1 F675 X54.4 Y41.812 E31.84016
G0 F7200 X56 Y41.392
G1 F675 X56 Y78.605 E35.62755
G0 F7200 X57.6 Y78.876
G1 F675 X57.6 Y41.121 E39.47011
G0 F7200 X59.2 Y40.994
G1 F675 X59.2 Y79.003 E43.33851
G0 F7200 X60.8 Y79.006
G1 F675 X60.8 Y40.997 E47.20692
G0 F7200 X62.4 Y41.124
G1 F675 X62.4 Y78.876 E51.04916
G0 F7200 X64 Y78.609
G1 F675 X64 Y41.395 E54.83666
G0 F7200 X65.6 Y41.81
G1 F675 X65.6 Y78.191 E58.53937
G0 F7200 X67.2 Y77.611
G1 F675 X67.2 Y42.389 E62.12412
G0 F7200 X68.8 Y43.138
G1 F675 X68.8 Y76.863 E65.55652
G0 F7200 X70.4 Y75.924
G1 F675 X70.4 Y44.076 E68.79788
G0 F7200 X72 Y45.244
G1 F675 X72 Y74.756 E71.8015
G0 F7200 X73.6 Y73.298
G1 F675 X73.6 Y46.704 E74.50813
G0 F7200 X75.2 Y48.546
G1 F675 X75.2 Y71.453 E76.83951
G0 F7200 X76.8 Y68.925
G1 F675 X76.8 Y51.082 E78.6555
G0 F7200 X78.4 Y55.183
G1 F675 X78.4 Y64.822 E79.63652
G0 F7200 X44.8 Y71.455
G1 F675 X44.8 Y48.551 E81.9676
G0 F7200 X43.2 Y51.078
G1 F675 X43.2 Y68.918 E83.78328
G0 F7200 X41.6 Y64.805
G1 F675 X41.6 Y55.183 E84.76257
G0 F7200 X44.778 Y71.506
;TIME_ELAPSED:103.562564
;LAYER:-4
M140 S50
G0 X44.778 Y71.506 Z0.525
;TYPE:SUPPORT
G1 F675 X48.486 Y75.214 E85.09679
G1 X47.36 Y74.298 E85.1893
G1 X46.993 Y73.961 E85.22106
G1 X45.946 Y72.911 E85.31556
G1 X45.621 Y72.547 E85.34667
G0 F7200 X48.486 Y75.214
G1 F675 X48.54 Y75.258 E85.35111
G1 X48.93 Y75.544 E85.38193
G1 X50.18 Y76.36 E85.47707
G1 X50.633 Y76.627 E85.51058
G1 X51.734 Y77.189 E85.58937
G1 X42.812 Y68.268 E86.3935
G1 X42.639 Y67.925 E86.41799
G1 X42.434 Y67.456 E86.45061
G1 X41.918 Y66.101 E86.54302
G1 X53.896 Y78.079 E87.62265
G1 X54.296 Y78.212 E87.64952
G1 X55.671 Y78.582 E87.74027
G1 X41.42 Y64.33 E89.02482
G1 X41.369 Y64.141 E89.0373
G1 X41.27 Y63.662 E89.06847
G1 X41.13 Y62.768 E89.12615
G1 X57.23 Y78.867 E90.57727
G1 X57.721 Y78.947 E90.60898
G1 X58.173 Y78.996 E90.63795
G1 X58.658 Y79.022 E90.66891
G1 X40.973 Y61.337 E92.26294
G1 X40.916 Y60.212 E92.33473
G1 X40.916 Y60.008 E92.34773
G1 X59.989 Y79.081 E94.06687
G1 X60.203 Y79.083 E94.08051
G1 X61.212 Y79.031 E94.1449
G1 X40.968 Y58.787 E95.96958
G1 X41.002 Y58.182 E96.00821
G1 X41.052 Y57.72 E96.03782
G1 X41.068 Y57.615 E96.04459
G1 X62.382 Y78.928 E97.96567
G1 X63.482 Y78.756 E98.03663
G1 X41.244 Y56.518 E100.04105
G1 X41.293 Y56.216 E100.06055
G1 X41.401 Y55.728 E100.0924
G1 X41.469 Y55.47 E100.10941
G1 X64.525 Y78.526 E102.18755
G1 X65.531 Y78.259 E102.25388
G1 X41.739 Y54.467 E104.39836
G1 X41.785 Y54.298 E104.40953
G1 X41.95 Y53.8 E104.44296
G1 X42.06 Y53.515 E104.46243
G1 X66.48 Y77.935 E106.66352
G1 X67.402 Y77.585 E106.72638
G1 X42.416 Y52.598 E108.97852
G1 X42.489 Y52.411 E108.99132
G1 X42.703 Y51.941 E109.02423
G1 X42.813 Y51.723 E109.03979
G1 X68.273 Y77.183 E111.33462
G1 X69.118 Y76.755 E111.39499
G1 X43.243 Y50.88 E113.72722
G1 X43.369 Y50.635 E113.74478
G1 X43.639 Y50.179 E113.77855
G1 X43.708 Y50.072 E113.78667
G1 X69.923 Y76.287 E116.14954
G1 X70.695 Y75.786 E116.2082
G1 X44.211 Y49.302 E118.59532
G1 X44.455 Y48.929 E118.62373
G1 X44.732 Y48.55 E118.65365
G1 X71.448 Y75.266 E121.06168
G1 X71.492 Y75.233 E121.06519
G1 X72.152 Y74.698 E121.11934
G1 X45.302 Y47.848 E123.53945
G1 X45.701 Y47.359 E123.57968
G1 X45.884 Y47.157 E123.59705
G1 X72.841 Y74.114 E126.0268
G1 X72.911 Y74.053 E126.03272
G1 X73.483 Y73.483 E126.08419
G1 X46.515 Y46.515 E128.51494
G1 X47.086 Y45.945 E128.56636
G1 X47.156 Y45.884 E128.57228
G1 X74.113 Y72.841 E131.00203
G1 X74.297 Y72.638 E131.01949
G1 X74.695 Y72.15 E131.05963
G1 X47.846 Y45.3 E133.4797
G1 X48.506 Y44.765 E133.53385
G1 X48.55 Y44.732 E133.53735
G1 X75.266 Y71.448 E135.94539
G1 X75.545 Y71.069 E135.97538
G1 X75.788 Y70.697 E136.0037
G1 X49.303 Y44.212 E138.39091
G1 X50.075 Y43.711 E138.44957
G1 X76.29 Y69.926 E140.81245
G1 X76.359 Y69.819 E140.82056
G1 X76.629 Y69.362 E140.85439
G1 X76.755 Y69.118 E140.87189
G1 X50.88 Y43.243 E143.20412
G1 X51.725 Y42.816 E143.26447
G1 X77.185 Y68.276 E145.55929
G1 X77.295 Y68.058 E145.57485
G1 X77.51 Y67.589 E145.60774
G1 X77.583 Y67.401 E145.62059
G1 X52.596 Y42.414 E147.87278
G1 X53.518 Y42.063 E147.93566
G1 X77.938 Y66.483 E150.13674
G1 X78.048 Y66.198 E150.15621
G1 X78.213 Y65.7 E150.18965
G1 X78.259 Y65.531 E150.20081
G1 X54.467 Y41.739 E152.34529
G1 X55.473 Y41.472 E152.41163
G1 X78.529 Y64.529 E154.48982
G1 X78.598 Y64.271 E154.50684
G1 X78.705 Y63.782 E154.53874
G1 X78.754 Y63.48 E154.55824
G1 X56.516 Y41.243 E156.56261
G1 X57.617 Y41.07 E156.63364
G1 X78.93 Y62.384 E158.55472
G1 X78.947 Y62.279 E158.5615
G1 X78.997 Y61.817 E158.59112
G1 X79.03 Y61.211 E158.6298
G1 X58.787 Y40.968 E160.45439
G1 X59.795 Y40.916 E160.51872
G1 X60.01 Y40.918 E160.53243
G1 X79.082 Y59.99 E162.25147
G1 X79.083 Y59.786 E162.26448
G1 X79.025 Y58.66 E162.33634
G1 X61.341 Y40.976 E163.93028
G1 X61.825 Y41.003 E163.96117
G1 X62.278 Y41.052 E163.99021
G1 X62.769 Y41.131 E164.02191
G1 X78.868 Y57.231 E165.47303
G1 X78.728 Y56.337 E165.5307
G1 X78.627 Y55.848 E165.56253
G1 X78.58 Y55.669 E165.57432
G1 X64.326 Y41.416 E166.85905
G1 X65.7 Y41.785 E166.94973
G1 X66.103 Y41.92 E166.97682
G1 X78.08 Y53.897 E168.05636
G1 X77.564 Y52.542 E168.14877
G1 X77.356 Y52.065 E168.18193
G1 X77.186 Y51.73 E168.20588
G1 X68.265 Y42.809 E169.00997
G1 X69.362 Y43.37 E169.0885
G1 X69.818 Y43.638 E169.12221
G1 X71.069 Y44.455 E169.21744
G1 X71.459 Y44.74 E169.24822
G1 X71.513 Y44.784 E169.25266
G1 X75.221 Y48.492 E169.58688
G0 F7200 X74.378 Y47.451
G1 F675 X74.053 Y47.088 E169.61793
G1 X73 Y46.032 E169.71298
G1 X72.629 Y45.692 E169.74505
G1 X71.513 Y44.784 E169.83675
G0 F7200 X57.263 Y40.95
;TIME_ELAPSED:222.853440
;LAYER:-3
G0 X57.263 Y40.95 Z0.788
;TYPE:SUPPORT-INTERFACE
G1 F900 X56.169 Y41.124 E169.87914
G1 X55.646 Y41.241 E169.89965
G1 X55.43 Y41.3 E169.90822
G1 X64.573 Y41.3 E170.25813
G1 X65.76 Y41.62 E170.30517
G1 X65.851 Y41.65 E170.30884
G1 X54.158 Y41.65 E170.75633
G1 X53.727 Y41.793 E170.77371
G1 X53.192 Y42 E170.79566
G1 X66.814 Y42 E171.31698
G1 X67.66 Y42.328 E171.3517
G1 X67.709 Y42.35 E171.35376
G1 X52.293 Y42.35 E171.94373
G1 X51.849 Y42.553 E171.96241
G1 X51.561 Y42.7 E171.97478
G1 X68.44 Y42.7 E172.62074
G1 X69.125 Y43.05 E172.65018
G1 X50.873 Y43.05 E173.34868
G1 X50.647 Y43.165 E173.35839
G1 X50.244 Y43.4 E173.37624
G1 X69.761 Y43.4 E174.12316
G1 X69.915 Y43.491 E174.13
G1 X70.312 Y43.75 E174.14814
G1 X49.689 Y43.75 E174.93738
G1 X49.154 Y44.1 E174.96185
G1 X70.848 Y44.1 E175.79208
G1 X71.165 Y44.307 E175.80657
G1 X71.36 Y44.45 E175.81582
G1 X48.641 Y44.45 E176.68528
G1 X48.401 Y44.626 E176.69667
G1 X48.187 Y44.8 E176.70722
G1 X71.811 Y44.8 E177.61131
G1 X72.241 Y45.15 E177.63253
G1 X47.755 Y45.15 E178.56961
G1 X47.333 Y45.492 E178.59039
G1 X47.325 Y45.5 E178.59083
G1 X72.671 Y45.5 E179.56082
G1 X72.747 Y45.562 E179.56457
G1 X73.062 Y45.85 E179.5809
G1 X46.936 Y45.85 E180.58075
G1 X46.586 Y46.2 E180.59969
G1 X73.417 Y46.2 E181.62651
G1 X73.766 Y46.55 E181.64542
G1 X46.235 Y46.55 E182.69903
G1 X45.908 Y46.876 E182.7167
G1 X45.886 Y46.9 E182.71795
G1 X74.116 Y46.9 E183.79831
G1 X74.177 Y46.962 E183.80164
G1 X74.435 Y47.25 E183.81644
G1 X45.565 Y47.25 E184.92129
G1 X45.281 Y47.6 E184.93854
G1 X74.726 Y47.6 E186.0654
G1 X75.01 Y47.95 E186.08265
G1 X44.996 Y47.95 E187.23128
G1 X44.711 Y48.3 E187.24856
G1 X75.293 Y48.3 E188.41893
G1 X75.374 Y48.4 E188.42385
G1 X75.558 Y48.65 E188.43573
G1 X44.444 Y48.65 E189.62646
G1 X44.308 Y48.835 E189.63525
G1 X44.201 Y49 E189.64278
G1 X75.801 Y49 E190.85211
G1 X76.03 Y49.35 E190.86811
G1 X43.972 Y49.35 E192.09497
G1 X43.744 Y49.7 E192.11096
G1 X76.259 Y49.7 E193.3553
G1 X76.488 Y50.05 E193.37131
G1 X43.515 Y50.05 E194.63318
G1 X43.492 Y50.085 E194.63479
G1 X43.306 Y50.4 E194.64879
G1 X76.692 Y50.4 E195.92647
G1 X76.835 Y50.646 E195.93736
G1 X76.888 Y50.75 E195.94182
G1 X43.116 Y50.75 E197.23428
G1 X42.937 Y51.1 E197.24932
G1 X77.067 Y51.1 E198.55547
G1 X77.245 Y51.45 E198.5705
G1 X42.758 Y51.45 E199.89032
G1 X42.579 Y51.8 E199.90536
G1 X77.423 Y51.8 E201.23884
G1 X77.447 Y51.848 E201.24089
G1 X77.586 Y52.15 E201.25362
G1 X42.416 Y52.15 E202.59957
G1 X42.329 Y52.34 E202.60757
G1 X42.268 Y52.5 E202.61412
G1 X77.733 Y52.5 E203.97136
G1 X77.869 Y52.85 E203.98573
G1 X42.132 Y52.85 E205.35339
G1 X41.996 Y53.2 E205.36776
G1 X78.004 Y53.2 E206.74578
G1 X78.139 Y53.55 E206.76014
G1 X41.861 Y53.55 E208.14849
G1 X41.787 Y53.739 E208.15626
G1 X41.734 Y53.9 E208.16275
G1 X78.265 Y53.9 E209.56079
G1 X78.371 Y54.219 E209.57365
G1 X78.38 Y54.25 E209.57489
G1 X41.619 Y54.25 E210.98173
G1 X41.525 Y54.6 E210.9956
G1 X78.475 Y54.6 E212.40967
G1 X78.57 Y54.95 E212.42355
G1 X41.43 Y54.95 E213.8449
G1 X41.336 Y55.3 E213.85877
G1 X78.666 Y55.3 E215.28738
G1 X78.759 Y55.645 E215.30106
G0 F7200 X78.761 Y55.65
G1 F900 X41.242 Y55.65 E216.73691
G1 X41.232 Y55.684 E216.73826
G1 X41.163 Y56 E216.75064
G1 X78.839 Y56 E218.1925
G1 X78.876 Y56.168 E218.19908
G1 X78.905 Y56.35 E218.20614
G1 X41.095 Y56.35 E219.65312
G1 X41.039 Y56.7 E219.66669
G1 X78.961 Y56.7 E221.11796
G1 X79.017 Y57.05 E221.13153
G1 X40.983 Y57.05 E222.58709
G1 X40.927 Y57.4 E222.60065
G1 X79.073 Y57.4 E224.0605
G1 X79.128 Y57.75 E224.07405
G1 X40.873 Y57.75 E225.53807
G1 X40.836 Y58.1 E225.55154
G1 X79.164 Y58.1 E227.01835
G1 X79.184 Y58.303 E227.02616
G1 X79.192 Y58.45 E227.03179
G1 X40.813 Y58.45 E228.50055
G1 X40.795 Y58.8 E228.51397
G1 X79.211 Y58.8 E229.98414
G1 X79.229 Y59.15 E229.99756
G1 X40.776 Y59.15 E231.46915
G1 X40.757 Y59.5 E231.48256
G1 X79.247 Y59.5 E232.95557
G1 X79.256 Y59.679 E232.96243
G1 X79.257 Y59.85 E232.96898
G1 X40.74 Y59.85 E234.44302
G1 X40.742 Y60.2 E234.45642
G1 X79.258 Y60.2 E235.93042
G1 X79.24 Y60.55 E235.94383
G1 X40.755 Y60.55 E237.41665
G1 X40.773 Y60.9 E237.43006
G1 X79.221 Y60.9 E238.90147
G1 X79.202 Y61.25 E238.91488
G1 X40.791 Y61.25 E240.38487
G1 X40.809 Y61.6 E240.39828
G1 X79.184 Y61.6 E241.86689
G1 X79.172 Y61.834 E241.87586
G1 X79.159 Y61.95 E241.88032
G1 X40.839 Y61.95 E243.34683
G1 X40.866 Y62.217 E243.3571
G1 X40.879 Y62.3 E243.36031
G1 X79.121 Y62.3 E244.82383
G1 X79.065 Y62.65 E244.8374
G1 X40.934 Y62.65 E246.29667
G1 X40.99 Y63 E246.31023
G1 X79.009 Y63 E247.76522
G1 X78.953 Y63.35 E247.77878
G1 X41.046 Y63.35 E249.22948
G1 X41.101 Y63.7 E249.24304
G1 X78.896 Y63.7 E250.68945
G1 X78.879 Y63.811 E250.69375
G1 X78.826 Y64.05 E250.70312
G1 X41.172 Y64.05 E252.14414
G1 X41.239 Y64.35 E252.1559
G1 X41.252 Y64.4 E252.15788
G1 X78.745 Y64.4 E253.59273
G1 X78.65 Y64.75 E253.60661
G1 X41.347 Y64.75 E255.03419
G1 X41.443 Y65.1 E255.04808
G1 X78.556 Y65.1 E256.4684
G1 X78.462 Y65.45 E256.48226
G1 X41.538 Y65.45 E257.89534
G1 X41.627 Y65.776 E257.90828
G1 X41.634 Y65.8 E257.90923
G1 X78.365 Y65.8 E259.31493
G1 X78.249 Y66.15 E259.32904
G1 X41.751 Y66.15 E260.72581
G1 X41.792 Y66.273 E260.73078
G1 X41.879 Y66.5 E260.74008
G1 X78.12 Y66.5 E262.12702
G1 X77.984 Y66.85 E262.14139
G1 X42.015 Y66.85 E263.51792
G1 X42.15 Y67.2 E263.53228
G1 X77.849 Y67.2 E264.89848
G1 X77.713 Y67.55 E264.91285
G1 X42.285 Y67.55 E266.26867
G1 X42.334 Y67.675 E266.27381
G1 X42.436 Y67.9 E266.28327
G1 X77.561 Y67.9 E267.6275
G1 X77.451 Y68.141 E267.63764
G1 X77.395 Y68.25 E267.64233
G1 X42.602 Y68.25 E268.97385
G1 X42.78 Y68.6 E268.98888
G1 X77.216 Y68.6 E270.30674
G1 X77.037 Y68.95 E270.32179
G1 X42.958 Y68.95 E271.62599
G1 X43.137 Y69.3 E271.64103
G1 X76.859 Y69.3 E272.93157
G1 X76.782 Y69.451 E272.93806
G1 X76.664 Y69.65 E272.94691
G1 X43.336 Y69.65 E274.22237
G1 X43.501 Y69.932 E274.23488
G1 X43.545 Y70 E274.23798
G1 X76.452 Y70 E275.49733
G1 X76.224 Y70.35 E275.51331
G1 X43.774 Y70.35 E276.75517
G1 X44.003 Y70.7 E276.77118
